_includes/icons/ios-adjust.svg

<svg fill="#666" height="50" viewBox="0 0 50 50" width="50" xmlns="http://www.w3.org/2000/svg"><path d="m7.90625 1.96875c-.042969.007813-.085937.019531-.125.03125-.464844.105469-.792969.523438-.78125 1v7h-2c-1.644531 0-3 1.355469-3 3v2c0 1.644531 1.355469 3 3 3h6c1.644531 0 3-1.355469 3-3v-2c0-1.644531-1.355469-3-3-3h-2v-7c.011719-.289062-.105469-.566406-.3125-.761719-.210937-.199218-.496094-.296875-.78125-.269531zm17 0c-.042969.007813-.085937.019531-.125.03125-.464844.105469-.792969.523438-.78125 1v28h-2c-1.644531 0-3 1.355469-3 3v2c0 1.644531 1.355469 3 3 3h6c1.644531 0 3-1.355469 3-3v-2c0-1.644531-1.355469-3-3-3h-2v-28c.011719-.289062-.105469-.566406-.3125-.761719-.210937-.199218-.496094-.296875-.78125-.269531zm17 0c-.042969.007813-.085937.019531-.125.03125-.464844.105469-.792969.523438-.78125 1v10h-2c-1.644531 0-3 1.355469-3 3v2c0 1.644531 1.355469 3 3 3h6c1.644531 0 3-1.355469 3-3v-2c0-1.644531-1.355469-3-3-3h-2v-10c.011719-.289062-.105469-.566406-.3125-.761719-.210937-.199218-.496094-.296875-.78125-.269531zm-36.90625 10.03125h6c.566406 0 1 .433594 1 1v2c0 .566406-.433594 1-1 1h-6c-.566406 0-1-.433594-1-1v-2c0-.566406.433594-1 1-1zm34 3h6c.566406 0 1 .433594 1 1v2c0 .566406-.433594 1-1 1h-6c-.566406 0-1-.433594-1-1v-2c0-.566406.433594-1 1-1zm-32 4v6.8125c-.007812.0625-.007812.125 0 .1875v21c-.003906.359375.183594.695313.496094.878906.3125.179688.695312.179688 1.007812 0 .3125-.183593.5-.519531.496094-.878906v-21c.007813-.0625.007813-.125 0-.1875v-6.8125zm34 3v6.8125c-.007812.0625-.007812.125 0 .1875v18c-.003906.359375.183594.695313.496094.878906.3125.179688.695312.179688 1.007812 0 .3125-.183593.5-.519531.496094-.878906v-18c.007813-.0625.007813-.125 0-.1875v-6.8125zm-19 11h6c.566406 0 1 .433594 1 1v2c0 .566406-.433594 1-1 1h-6c-.566406 0-1-.433594-1-1v-2c0-.566406.433594-1 1-1zm2 7v1.8125c-.007812.0625-.007812.125 0 .1875v5c-.003906.359375.183594.695313.496094.878906.3125.179688.695312.179688 1.007812 0 .3125-.183593.5-.519531.496094-.878906v-5c.007813-.0625.007813-.125 0-.1875v-1.8125z"/></svg>

<svg xmlns="http://www.w3.org/2000/svg" viewBox="0 0 50 50" width="50" height="50" fill="#666"><path d="M 7.90625 1.96875 C 7.863281 1.976563 7.820313 1.988281 7.78125 2 C 7.316406 2.105469 6.988281 2.523438 7 3 L 7 10 L 5 10 C 3.355469 10 2 11.355469 2 13 L 2 15 C 2 16.644531 3.355469 18 5 18 L 11 18 C 12.644531 18 14 16.644531 14 15 L 14 13 C 14 11.355469 12.644531 10 11 10 L 9 10 L 9 3 C 9.011719 2.710938 8.894531 2.433594 8.6875 2.238281 C 8.476563 2.039063 8.191406 1.941406 7.90625 1.96875 Z M 24.90625 1.96875 C 24.863281 1.976563 24.820313 1.988281 24.78125 2 C 24.316406 2.105469 23.988281 2.523438 24 3 L 24 31 L 22 31 C 20.355469 31 19 32.355469 19 34 L 19 36 C 19 37.644531 20.355469 39 22 39 L 28 39 C 29.644531 39 31 37.644531 31 36 L 31 34 C 31 32.355469 29.644531 31 28 31 L 26 31 L 26 3 C 26.011719 2.710938 25.894531 2.433594 25.6875 2.238281 C 25.476563 2.039063 25.191406 1.941406 24.90625 1.96875 Z M 41.90625 1.96875 C 41.863281 1.976563 41.820313 1.988281 41.78125 2 C 41.316406 2.105469 40.988281 2.523438 41 3 L 41 13 L 39 13 C 37.355469 13 36 14.355469 36 16 L 36 18 C 36 19.644531 37.355469 21 39 21 L 45 21 C 46.644531 21 48 19.644531 48 18 L 48 16 C 48 14.355469 46.644531 13 45 13 L 43 13 L 43 3 C 43.011719 2.710938 42.894531 2.433594 42.6875 2.238281 C 42.476563 2.039063 42.191406 1.941406 41.90625 1.96875 Z M 5 12 L 11 12 C 11.566406 12 12 12.433594 12 13 L 12 15 C 12 15.566406 11.566406 16 11 16 L 5 16 C 4.433594 16 4 15.566406 4 15 L 4 13 C 4 12.433594 4.433594 12 5 12 Z M 39 15 L 45 15 C 45.566406 15 46 15.433594 46 16 L 46 18 C 46 18.566406 45.566406 19 45 19 L 39 19 C 38.433594 19 38 18.566406 38 18 L 38 16 C 38 15.433594 38.433594 15 39 15 Z M 7 19 L 7 25.8125 C 6.992188 25.875 6.992188 25.9375 7 26 L 7 47 C 6.996094 47.359375 7.183594 47.695313 7.496094 47.878906 C 7.808594 48.058594 8.191406 48.058594 8.503906 47.878906 C 8.816406 47.695313 9.003906 47.359375 9 47 L 9 26 C 9.007813 25.9375 9.007813 25.875 9 25.8125 L 9 19 Z M 41 22 L 41 28.8125 C 40.992188 28.875 40.992188 28.9375 41 29 L 41 47 C 40.996094 47.359375 41.183594 47.695313 41.496094 47.878906 C 41.808594 48.058594 42.191406 48.058594 42.503906 47.878906 C 42.816406 47.695313 43.003906 47.359375 43 47 L 43 29 C 43.007813 28.9375 43.007813 28.875 43 28.8125 L 43 22 Z M 22 33 L 28 33 C 28.566406 33 29 33.433594 29 34 L 29 36 C 29 36.566406 28.566406 37 28 37 L 22 37 C 21.433594 37 21 36.566406 21 36 L 21 34 C 21 33.433594 21.433594 33 22 33 Z M 24 40 L 24 41.8125 C 23.992188 41.875 23.992188 41.9375 24 42 L 24 47 C 23.996094 47.359375 24.183594 47.695313 24.496094 47.878906 C 24.808594 48.058594 25.191406 48.058594 25.503906 47.878906 C 25.816406 47.695313 26.003906 47.359375 26 47 L 26 42 C 26.007813 41.9375 26.007813 41.875 26 41.8125 L 26 40 Z"/></svg>
